static/site/images/special-projects/autoclave/svg/2-stroke.svg

<svg width="75" height="73" viewBox="0 0 75 73" fill="none" xmlns="http://www.w3.org/2000/svg">
<path d="M5.808 71L4.46813 69.5152L0.606242 73H5.808V71ZM38.256 41.72L39.5959 43.2048L39.6074 43.1944L39.6188 43.1838L38.256 41.72ZM43.632 36.728L42.3 35.2361L42.2865 35.2482L42.2732 35.2605L43.632 36.728ZM48.144 31.832L46.5369 30.6415L46.5292 30.652L48.144 31.832ZM50.448 26.264L52.4316 26.5199L52.4333 26.5066L52.4348 26.4932L50.448 26.264ZM49.488 22.04L47.797 23.108L47.8302 23.1606L47.8666 23.211L49.488 22.04ZM45.168 20.12L45.0911 22.1185L45.0993 22.1188L45.1074 22.1191L45.168 20.12ZM40.656 21.464L39.4935 19.8365L39.4746 19.85L39.456 19.864L40.656 21.464ZM37.488 25.112L35.7469 24.1279L35.7469 24.1279L37.488 25.112ZM35.76 29.72V31.72H37.3996L37.7212 30.1122L35.76 29.72ZM15.408 29.72L13.4359 29.387L13.042 31.72H15.408V29.72ZM20.784 16.088L19.1278 14.9669L19.1218 14.9757L19.116 14.9845L20.784 16.088ZM31.728 6.10399L32.7014 7.85115L32.7097 7.84649L31.728 6.10399ZM61.104 5.336L60.1749 7.10709L60.1749 7.10709L61.104 5.336ZM69.936 13.592L68.2015 14.5877L68.2125 14.6069L68.2239 14.6257L69.936 13.592ZM72.048 24.92L70.0713 24.6159L70.0663 24.648L70.0624 24.6804L72.048 24.92ZM67.824 34.808L66.2792 33.5378L66.2706 33.5481L66.2623 33.5586L67.824 34.808ZM59.76 42.488L60.9213 44.1163L60.9299 44.1102L60.9383 44.104L59.76 42.488ZM46.704 51.8L45.5427 50.1717L40.4556 53.8H46.704V51.8ZM70.32 51.8L72.2949 52.116L72.6654 49.8H70.32V51.8ZM67.248 71V73H68.9534L69.2229 71.316L67.248 71ZM7.14787 72.4848L39.5959 43.2048L36.9161 40.2352L4.46813 69.5152L7.14787 72.4848ZM39.6188 43.1838C41.4736 41.4569 43.2643 39.7942 44.9908 38.1955L42.2732 35.2605C40.5437 36.8618 38.7504 38.5271 36.8932 40.2562L39.6188 43.1838ZM44.964 38.2199C46.8442 36.5412 48.4474 34.8065 49.7588 33.012L46.5292 30.652C45.4086 32.1855 44.0038 33.7148 42.3 35.2361L44.964 38.2199ZM49.7511 33.0225C51.2186 31.0414 52.1286 28.8677 52.4316 26.5199L48.4644 26.0081C48.2554 27.6283 47.6294 29.1666 46.5369 30.6415L49.7511 33.0225ZM52.4348 26.4932C52.6732 24.4274 52.2848 22.4965 51.1094 20.869L47.8666 23.211C48.3552 23.8874 48.6068 24.7726 48.4612 26.0348L52.4348 26.4932ZM51.179 20.972C49.9093 18.9617 47.6729 18.195 45.2286 18.1209L45.1074 22.1191C46.8871 22.173 47.5307 22.6863 47.797 23.108L51.179 20.972ZM45.2449 18.1215C43.142 18.0406 41.2013 18.6167 39.4935 19.8365L41.8185 23.0915C42.7987 22.3913 43.866 22.0714 45.0911 22.1185L45.2449 18.1215ZM39.456 19.864C37.9426 20.999 36.7069 22.4293 35.7469 24.1279L39.2291 26.0961C39.9331 24.8507 40.8094 23.8489 41.856 23.064L39.456 19.864ZM35.7469 24.1279C34.8145 25.7775 34.1619 27.5126 33.7988 29.3278L37.7212 30.1122C37.9981 28.7274 38.4975 27.3905 39.2291 26.0961L35.7469 24.1279ZM35.76 27.72H15.408V31.72H35.76V27.72ZM17.3801 30.0529C18.1657 25.3996 19.8544 21.1182 22.452 17.1915L19.116 14.9845C16.2096 19.3778 14.3143 24.1844 13.4359 29.387L17.3801 30.0529ZM22.4402 17.2091C25.077 13.3139 28.4889 10.1981 32.7014 7.85113L30.7546 4.35686C26.0071 7.00192 22.123 10.5421 19.1278 14.9669L22.4402 17.2091ZM32.7097 7.84649C36.9077 5.48143 41.8705 4.264 47.664 4.264V0.263998C41.2975 0.263998 35.6363 1.60657 30.7463 4.3615L32.7097 7.84649ZM47.664 4.264C52.4442 4.264 56.5971 5.23021 60.1749 7.10709L62.0331 3.5649C57.8029 1.34578 52.9958 0.263998 47.664 0.263998V4.264ZM60.1749 7.10709C63.7792 8.99789 66.4266 11.496 68.2015 14.5877L71.6705 12.5963C69.4774 8.77602 66.2368 5.77011 62.0331 3.5649L60.1749 7.10709ZM68.2239 14.6257C70.0138 17.5904 70.6448 20.8879 70.0713 24.6159L74.0247 25.2241C74.7312 20.6321 73.9542 16.3776 71.6481 12.5583L68.2239 14.6257ZM70.0624 24.6804C69.66 28.015 68.4043 30.9532 66.2792 33.5378L69.3689 36.0782C71.9797 32.9028 73.54 29.249 74.0336 25.1596L70.0624 24.6804ZM66.2623 33.5586C64.0726 36.2957 61.5146 38.7334 58.5817 40.872L60.9383 44.104C64.1494 41.7626 66.9674 39.0803 69.3857 36.0574L66.2623 33.5586ZM58.5987 40.8597L45.5427 50.1717L47.8653 53.4283L60.9213 44.1163L58.5987 40.8597ZM46.704 53.8H70.32V49.8H46.704V53.8ZM68.3451 51.484L65.2731 70.684L69.2229 71.316L72.2949 52.116L68.3451 51.484ZM67.248 69H5.808V73H67.248V69Z" fill="#0073FF"/>
</svg>

<svg width="75" height="73" fill="none" xmlns="http://www.w3.org/2000/svg"><path d="M5.808 71l-1.34-1.485L.606 73h5.202v-2zm32.448-29.28l1.34 1.485.011-.01.012-.011-1.363-1.464zm5.376-4.992L42.3 35.236l-.014.012-.013.013 1.359 1.467zm4.512-4.896l-1.607-1.19-.008.01 1.615 1.18zm2.304-5.568l1.984.256.001-.013.002-.014-1.987-.229zm-.96-4.224l-1.691 1.068.033.053.037.05 1.621-1.171zm-4.32-1.92l-.077 1.998h.008l.008.001.061-1.999zm-4.512 1.344l-1.163-1.627-.018.013-.019.014 1.2 1.6zm-3.168 3.648l-1.741-.984 1.741.984zM35.76 29.72v2h1.64l.321-1.608-1.961-.392zm-20.352 0l-1.972-.333-.394 2.333h2.366v-2zm5.376-13.632l-1.656-1.121-.006.009-.006.008 1.668 1.104zm10.944-9.984l.973 1.747.009-.005-.982-1.742zm29.376-.768l-.93 1.771.93-1.771zm8.832 8.256l-1.735.996.012.019.01.019 1.713-1.034zm2.112 11.328l-1.977-.304-.005.032-.004.032 1.986.24zm-4.224 9.888l-1.545-1.27-.008.01-.009.01 1.562 1.25zm-8.064 7.68l1.161 1.628.009-.006.008-.006-1.178-1.616zM46.704 51.8l-1.161-1.628-5.087 3.628h6.248v-2zm23.616 0l1.975.316.37-2.316H70.32v2zM67.248 71v2h1.705l.27-1.684L67.248 71zm-60.1 1.485l32.448-29.28-2.68-2.97-32.448 29.28 2.68 2.97zm32.47-29.301c1.856-1.727 3.646-3.39 5.373-4.988l-2.718-2.935c-1.73 1.6-3.523 3.266-5.38 4.995l2.726 2.928zm5.346-4.964c1.88-1.679 3.483-3.413 4.795-5.208l-3.23-2.36c-1.12 1.533-2.525 3.063-4.229 4.584l2.664 2.984zm4.787-5.197c1.468-1.982 2.378-4.155 2.68-6.503l-3.967-.512c-.209 1.62-.835 3.159-1.927 4.634l3.214 2.38zm2.684-6.53c.238-2.066-.15-3.996-1.326-5.624l-3.242 2.342c.488.676.74 1.562.594 2.824l3.974.458zm-1.256-5.521c-1.27-2.01-3.506-2.777-5.95-2.851l-.122 3.998c1.78.054 2.424.567 2.69.989l3.382-2.136zm-5.934-2.85c-2.103-.081-4.044.495-5.752 1.715l2.325 3.255c.98-.7 2.048-1.02 3.273-.973l.154-3.997zm-5.789 1.742c-1.513 1.135-2.75 2.565-3.71 4.264l3.483 1.968c.704-1.245 1.58-2.247 2.627-3.032l-2.4-3.2zm-3.71 4.264a17.495 17.495 0 00-1.947 5.2l3.922.784a13.493 13.493 0 011.508-4.016l-3.482-1.968zm.014 3.592H15.408v4H35.76v-4zm-18.38 2.333a33.002 33.002 0 015.072-12.861l-3.336-2.207a37.001 37.001 0 00-5.68 14.402l3.944.666zm5.06-12.844c2.637-3.895 6.049-7.01 10.261-9.358l-1.946-3.494c-4.748 2.645-8.632 6.185-11.627 10.61l3.312 2.242zm10.27-9.363c4.198-2.365 9.16-3.582 14.954-3.582v-4c-6.367 0-12.028 1.343-16.918 4.098l1.964 3.484zm14.954-3.582c4.78 0 8.933.966 12.51 2.843l1.86-3.542C57.802 1.345 52.995.264 47.663.264v4zm12.51 2.843c3.605 1.89 6.253 4.389 8.027 7.48l3.47-1.99c-2.194-3.821-5.434-6.827-9.638-9.032l-1.858 3.542zm8.05 7.519c1.79 2.964 2.42 6.262 1.847 9.99l3.954.608c.706-4.592-.07-8.846-2.377-12.666l-3.424 2.068zm1.838 10.054c-.402 3.335-1.658 6.273-3.783 8.858l3.09 2.54c2.61-3.175 4.171-6.829 4.665-10.918l-3.972-.48zm-3.8 8.879a39.81 39.81 0 01-7.68 7.313l2.356 3.232a43.806 43.806 0 008.448-8.047l-3.124-2.498zm-7.663 7.3l-13.056 9.313 2.322 3.256 13.056-9.312L58.6 40.86zM46.704 53.8H70.32v-4H46.704v4zm21.641-2.316l-3.072 19.2 3.95.632 3.072-19.2-3.95-.632zM67.248 69H5.808v4h61.44v-4z" fill="#0073FF"/></svg>
